X: 9175
T: Dálaigh's
R: polka
M: 2/4
K: Edorian
|:E>F GA|Be dB|AB AF|EF D2|
E>F GA|Be dB|AF dF|1 FE ED:|2 FE E2||
|:Be ed/e/|fe dA|Be ef/g/|fe d2|
Be ed/e/|fe dB|AF dF|1 FE E2:|2 FE ED||

